X: 759
T: Paddy Whack.
T: When History's Muse.
B:O'Neill's Music of Ireland
N:O'Neill's - 759
Z:Transcribed by Stephen Foy (shf@access.digex.net)
Z:abc 1.6
M:6/8
R:Jig
K:G
G|GBd g>fg|edc BAG|GBd e>fg|fdd def|\
gbg afd|c>de dBG|GAB cAd|BGG G2:|
||c|BGB cde|dBG A2 G|GBd e>fg|fdd d2 (e/f/)|\
gba gfe|dBG AFD|GAB cAd|BGG G2:|


